!!!OTL: Tanger tiao dan song suqin
!!!ARE: Asia, China,ÿSichuan, Dianshan
!! II, 256
!!!SCT: C1508
!!!YEM: Copyright 1995, estate of Helmut Schaffrath.
**kern
*ICvox
*Ivox
!! Irregular meter.
*MX
*k[f#c#g#]
*A:
{16ff#
16aa
8ee
4ff#
8ee
8cc#
!*M3/4
=1
4fff#
4eee
4ccc#
4aa
8bb
8aa
4ff#}
{4bb
4ccc#
4aa
=2
16ccc#
8.ccc#
4.bb
16aa
16ff#
4.ff#
16ee
16cc#}
{16ff#
16aa
8ee
8ff#
4bb
16aa
16ff#
4.ff#
8ee
8aa
8ff#
4ee
4cc#}
{8ee
8cc#
4fff#
4eee
4ccc#
4bb
=3
8.ccc#
16bb
4ccc#}
!*M2/4
=4
{8bb
8aa
8aa
8ff#
4bb
4ccc#
!*M4/4
=5
8aa
8bb
2ff#}
!*M3/4
=6
{16bb
4ccc#
8bb
=7
8bb
8ccc#
8bb
8aa
!*M2/4
=8
8bb
8ccc#
8aa
16bb
32aa
32bb}
=9
{4.ccc#
8eee
=10
8bb
8aa
4ccc#}
=11
{4eee
4ccc#
=12
4eee
4eee
=13
4ccc#
4eee
=14
4bb
4aa}
=15
{8bb
8bb
8aa
8ccc#
=16
4aa
4bb
=17
4ff#
12bb
12aa
12f#
=18
4ee
4cc#}
=19
{4eee
4eee
=20
4.bb
8bb
=21
2ccc#}
=22
{4ccc#
4eee
=23
8ccc#
8eee
8ccc#
8bb
=24
2aa}
=25
{8.ff#
16aa
8ee
8ff#
=26
4.bb
8aa
=27
8ff#
8aa
8bb
8aa
=28
8ff#
8aa
4ee
=29
2ff#}
==
!!!AGN: Shange, Tiange, Haoyangge, Yayiyou
!!!AMT: irregular
!!!AIN: vox
!!!EED: Helmut Schaffrath
!!!EEV: 1.0
*-
